X: 22167
T: L'Inconnu De Limoise
R: mazurka
M: 3/4
K: Cmajor
e2- e>c f>d|e2- e>e f>g|f2- f>e d>c|G2- G>G c>d|
e2- e>c f>d|e2- e>e f>g|f2- f>e d>c|d3:|
a2 c'>b a>b|g2- g>f e>d|c>B c>d (3edc|G2- G>c c>B|
A2- A>B c>d|c2 B2 A2|1 B2- B>A B>c|d3:|
2 B>A B>c d>e|c3||

